icon-themes/breeze_svg/cmd/32/symbolshapes.forbidden.svg

<svg viewBox="0 0 32 32" xmlns="http://www.w3.org/2000/svg"><path d="m16 4a12 12 0 0 0 -12 12 12 12 0 0 0 12 12 12 12 0 0 0 12-12 12 12 0 0 0 -12-12zm0 2a10 10 0 0 1 10 10 10 10 0 0 1 -2.261719 6.324219l-14.0624998-14.0625002a10 10 0 0 1 6.3242188-2.2617188zm-7.7382812 3.6757812 14.0625002 14.0624998a10 10 0 0 1 -6.324219 2.261719 10 10 0 0 1 -10-10 10 10 0 0 1 2.2617188-6.3242188z" fill="#4d4d4d"/></svg>

<svg xmlns="http://www.w3.org/2000/svg" viewBox="0 0 32 32">
 <path 
     style="fill:#4d4d4d" 
     d="M 16 4 A 12 12 0 0 0 4 16 A 12 12 0 0 0 16 28 A 12 12 0 0 0 28 16 A 12 12 0 0 0 16 4 z M 16 6 A 10 10 0 0 1 26 16 A 10 10 0 0 1 23.738281 22.324219 L 9.6757812 8.2617188 A 10 10 0 0 1 16 6 z M 8.2617188 9.6757812 L 22.324219 23.738281 A 10 10 0 0 1 16 26 A 10 10 0 0 1 6 16 A 10 10 0 0 1 8.2617188 9.6757812 z "
     />
</svg>
